X:1
T:Title
%%score 1 2
L:1/8
Q:1/4=113
M:4/4
K:Bb
V:1 treble nm="Grand Piano, Soprano"
V:2 bass nm="Choir Pad, Deptford, 76.76 D"
V:1
 [DF]2 [DF]2 [DB]2 [DA]2 | [DG]2 [DG]4 [DF]2 | [DB]2 [EA]2 [EB]2 [CE]2 | [EG]2 [DF]6 | %4
w: By~Charles~Bentley,~1898 * * *||||
 [DF]2 [DF]2 [DB]2 [DA]2 | [DG]2 [CF]4 [Fc]2 | [Fc]2 [=Ec]2 [EG]2 [EA]2 | [=EG]2 F6 | %8
w: ||||
 [Fe]2 [Fd]2 [Fd]2 [Fe]2 | [CF]2 [B,D]2 [DF]4 | [DB]2 [Ec]2 [Ec]2 [EB]2 | [Ec]2 [Dd]6 | %12
w: ||||
 [DF]2 [EG]2 [EG]2 [EB]2 | [EG]2 [DG]2 [DF]4 | [DB]2 [Ec]2 [Ed]2 [Ee]2 | [EA]2 [DB]6- | %16
w: ||||
 [DB]2 z2 z4 |] %17
w: |
V:2
 [B,,B,]2 [B,,B,]2 [B,,B,]2 [B,,B,]2 | [B,,B,]2 [B,,B,]4 [B,,B,]2 | %2
 [B,,B,]2 [F,C]2 [F,A,]2 [F,A,]2 | [F,A,]2 [B,,B,]6 | [B,,B,]2 [B,,B,]2 [B,,B,]2 [B,,B,]2 | %5
 [B,,B,]2 [C,A,]4 [C,A,]2 | [C,A,]2 [B,,B,]2 [B,,B,]2 [B,,B,]2 | [B,,B,]2 [F,A,]6 | %8
 [F,A,]2 [F,A,]2 [F,A,]2 [F,A,]2 | [F,A,]2 [B,,F,]2 [B,,B,]4 | [F,B,]2 [F,A,]2 [F,A,]2 [F,A,]2 | %11
 [F,A,]2 [B,,B,]6 | [B,,B,]2 [E,B,]2 [E,B,]2 [G,B,]2 | [E,B,]2 [B,,B,]2 [B,,B,]4 | %14
 [B,,B,]2 [E,G,]2 [E,G,]2 [F,A,]2 | [F,C]2 [B,,B,]6- | [B,,B,]2 z2 z4 |] %17

